X: 19996
T: Jim Mac's
R: hornpipe
M: 4/4
K: Gmajor
B>c|d>ba>g f>ed>^c|e>dB>G D>^CD>G|(3Ecc (3Ecc D>BA>F|G>Bc>B e>dB>c|
d>ba>g f>ed>^c|e>dB>G D>^CD>G|(3Ecc (3Ecc D>BA>F|G>gd>B G2:|
(3GAB|A>GA>B c>DE>F|(3GDB (3GBD G>Bd>g|e>^d (3efg (3faf =d>f|(3gba (3gfe d2d>B|
(3cde (3ABc (3BdB G>B|(3ABc (3FGA (3GAB D>g|(3dBG (3DEF (3GBA (3GFE|(3DED (3cBA G>G:|

